X:216
T: Bittfahrtslied
N: A0568B
O: Europa, Mitteleuropa, Deutschland
N: Behe, Kath. Gsgb. 1537 No. 30
R: Romanze, Ballade, Lied, religioeses Lied
M: 2/1
L: 1/2
K: G
G | G2G2 | G2G2 | GA_B2 | c4 |
d2d2 | c2GG | GA_B2 | c2z
c | d2d2 | c2G2 | A2G2 | =F2z
F | A2_B2 | c2c2 | _B2G2 | _B4 |
A2G2 | G2=F2 | G3

@@@ Tune index: 529
